app/images/svg/phone-violet.svg

<svg width="23" height="23" viewBox="0 0 23 23" fill="none" xmlns="http://www.w3.org/2000/svg">
<g clip-path="url(#clip0_663_721)">
<path d="M5.25127 0.781651C4.53252 1.05567 3.19385 2.37638 1.94951 4.0295C1.45537 4.68985 1.06904 5.28282 0.866895 5.70509L0.700684 6.03751L0.75459 6.49122C1.16787 10.0625 4.1417 14.7299 8.13076 18.0631C10.9474 20.4125 13.9841 21.9354 16.4862 22.2408C16.8995 22.2947 16.922 22.2902 17.1825 22.1869C18.2427 21.7512 20.7493 19.7387 21.6972 18.5572C22.2991 17.807 22.389 17.4432 22.1104 16.8772C21.9218 16.4908 21.7196 16.3156 20.6505 15.5969C18.4808 14.1324 16.9265 13.3418 16.2302 13.3418C15.7136 13.3418 15.4216 13.5574 14.5771 14.5502C14.2806 14.8961 14.011 15.1836 13.9796 15.1836C13.8808 15.1836 13.153 14.8871 12.7173 14.6715C11.1765 13.8943 9.88271 12.7533 8.93037 11.3203C8.57549 10.7902 8.07236 9.79747 7.91064 9.3168L7.80283 8.99786L7.97803 8.84063C8.07236 8.75528 8.36436 8.50372 8.6249 8.27911C9.429 7.5963 9.61768 7.33126 9.64912 6.83712C9.6626 6.63048 9.64463 6.47774 9.56826 6.23966C9.429 5.8129 8.94385 4.82462 8.49014 4.06544C7.97803 3.20294 6.87295 1.54083 6.62139 1.26231C6.25752 0.858017 5.62861 0.637899 5.25127 0.781651Z" fill="#666981"/>
</g>
<defs>
<clipPath id="clip0_663_721">
<rect width="23" height="23" fill="white"/>
</clipPath>
</defs>
</svg>

<svg width="23" height="23" viewBox="0 0 23 23" fill="none" xmlns="http://www.w3.org/2000/svg"><g clip-path="url(#clip0_663_721)"><path d="M5.251.782c-.718.274-2.057 1.594-3.301 3.247-.495.66-.881 1.254-1.083 1.676L.7 6.038l.054.453c.413 3.572 3.387 8.239 7.376 11.572 2.816 2.35 5.853 3.872 8.355 4.178.413.054.436.05.697-.054 1.06-.436 3.566-2.448 4.514-3.63.602-.75.692-1.114.413-1.68-.188-.386-.39-.561-1.46-1.28-2.17-1.465-3.723-2.255-4.42-2.255-.516 0-.808.215-1.653 1.208-.296.346-.566.634-.597.634-.1 0-.827-.297-1.263-.512A9.84 9.84 0 018.93 11.32c-.355-.53-.858-1.523-1.02-2.003l-.107-.32.175-.156c.094-.086.386-.337.647-.562.804-.683.993-.948 1.024-1.442a1.44 1.44 0 00-.08-.597c-.14-.427-.625-1.415-1.079-2.175-.512-.862-1.617-2.524-1.869-2.803-.363-.404-.992-.624-1.37-.48z" fill="#666981"/></g><defs><clipPath id="clip0_663_721"><path fill="#fff" d="M0 0h23v23H0z"/></clipPath></defs></svg>
